icons/log-16.svg

<svg width="16" height="17" viewBox="0 0 16 17" fill="none" xmlns="http://www.w3.org/2000/svg">
<path d="M5 9.25C5 8.83579 5.33579 8.5 5.75 8.5H9.75C10.1642 8.5 10.5 8.83579 10.5 9.25C10.5 9.66421 10.1642 10 9.75 10H5.75C5.33579 10 5 9.66421 5 9.25Z" fill="black"/>
<path d="M4 11.5C3.58579 11.5 3.25 11.8358 3.25 12.25C3.25 12.6642 3.58579 13 4 13H8C8.41421 13 8.75 12.6642 8.75 12.25C8.75 11.8358 8.41421 11.5 8 11.5H4Z" fill="black"/>
<path fill-rule="evenodd" clip-rule="evenodd" d="M13 0.995117H3C1.34315 0.995117 0 2.33826 0 3.99512C0 4.67056 0.224382 5.2492 0.603487 5.71725C1.12925 6.36638 1.9341 6.5 2.5095 6.5H3.68699C3.3227 7.16233 2.87272 7.83851 2.40028 8.54844C2.19504 8.85685 1.98557 9.17163 1.77704 9.49441C0.891308 10.8654 0 12.4175 0 14C0 15.6569 1.34315 17 3 17H13C14.6569 17 16 15.6569 16 14C16 12.9591 15.4693 12.0425 14.6672 11.5056C14.323 11.2752 13.8572 11.3675 13.6267 11.7117C13.3963 12.0559 13.4886 12.5217 13.8328 12.7521C14.2367 13.0225 14.5 13.4806 14.5 14C14.5 14.8284 13.8284 15.5 13 15.5C12.1716 15.5 11.5 14.8284 11.5 14C11.5 13.3576 11.7247 12.6528 12.1226 11.8645C12.5204 11.0766 13.0559 10.2711 13.6242 9.41791L13.6352 9.4014C14.1888 8.57021 14.7735 7.6924 15.2166 6.81304C15.6625 5.92823 16 4.97657 16 3.99512C16 2.32336 14.6542 0.995117 13 0.995117ZM3 2.49512C2.17157 2.49512 1.5 3.16669 1.5 3.99512C1.5 4.31643 1.59969 4.56398 1.76911 4.77315C1.86665 4.89358 2.09458 5 2.5095 5H10.1839C10.0663 4.69926 10 4.36466 10 3.99512C10 3.44869 10.1461 2.93638 10.4013 2.49512H3ZM13 2.49512C13.8311 2.49512 14.5 3.15711 14.5 3.99512C14.5 4.64111 14.275 5.34845 13.8771 6.13803C13.4794 6.92725 12.9439 7.73342 12.3758 8.58638L12.3589 8.61171C11.8072 9.44003 11.2251 10.3139 10.7836 11.1885C10.3378 12.0715 10 13.0211 10 14C10 14.5464 10.1461 15.0587 10.4013 15.5H3C2.17157 15.5 1.5 14.8284 1.5 14C1.5 12.9157 2.13058 11.7114 3.03697 10.3084C3.21435 10.0338 3.40257 9.75152 3.59463 9.46343C4.22715 8.5147 4.90143 7.50334 5.36784 6.5H11.75C12.0802 6.5 12.3716 6.28399 12.4676 5.96801C12.5636 5.65203 12.4416 5.31044 12.1672 5.12674C11.7225 4.82906 11.5 4.47054 11.5 3.99512C11.5 3.16669 12.1716 2.49512 13 2.49512Z" fill="black"/>
</svg>

<svg xmlns="http://www.w3.org/2000/svg" width="16" height="17" viewBox="0 0 16 17"><path d="M5 9.25a.75.75 0 01.75-.75h4a.75.75 0 010 1.5h-4A.75.75 0 015 9.25zM4 11.5A.75.75 0 004 13h4a.75.75 0 000-1.5H4z"/><path fill-rule="evenodd" d="M13 .995H3a3 3 0 00-3 3c0 .676.224 1.254.603 1.722.526.65 1.331.783 1.907.783h1.177c-.364.662-.814 1.339-1.287 2.048-.205.309-.414.624-.623.946C.891 10.865 0 12.418 0 14a3 3 0 003 3h10a3 3 0 001.667-5.494.75.75 0 00-.834 1.246A1.5 1.5 0 1111.5 14c0-.642.225-1.347.623-2.136.397-.787.933-1.593 1.501-2.446l.011-.017c.554-.83 1.139-1.709 1.582-2.588.445-.885.783-1.836.783-2.818 0-1.672-1.346-3-3-3zm-10 1.5a1.5 1.5 0 00-1.5 1.5c0 .321.1.569.27.778.097.12.325.227.74.227h7.674A2.737 2.737 0 0110 3.995c0-.546.146-1.059.401-1.5H3zm10 0c.831 0 1.5.662 1.5 1.5 0 .646-.225 1.353-.623 2.143-.398.79-.933 1.595-1.501 2.448l-.017.026c-.552.828-1.134 1.702-1.575 2.576C10.338 12.072 10 13.021 10 14c0 .546.146 1.059.401 1.5H3A1.5 1.5 0 011.5 14c0-1.084.63-2.289 1.537-3.692.177-.274.366-.556.558-.845.632-.948 1.306-1.96 1.773-2.963h6.382a.75.75 0 00.417-1.373c-.444-.298-.667-.656-.667-1.132a1.5 1.5 0 011.5-1.5z"/></svg>
